X:1
T:Candy Magic
T:Candy Magic
T:MimemeMIMI
T:Arranged by: Anime Pro - Anime on Piano Transcribed by: Kiro Raynes 
T: Copyright 2020
T: Copyright 2020
T: Copyright 2020
T: Copyright 2020
C:MimimemeMIMI
Z:Copyright 2020
%%score { ( 1 3 5 ) | ( 2 4 ) }
L:1/8
Q:1/4=159
M:4/4
K:Db
V:1 treble nm="Piano" snm="Pno."
V:3 treble 
V:5 treble 
V:2 treble 
V:4 treble 
V:1
!8va(! z2 d'e' f'd'f'd'' | c''4 b'4 | c'2 d'e' f'd'f'd'' | [d'c'']2 b'2 c''2 b'2 | %4
 c''3 d'' d''2 ad | aa'a'a' a'g'f'a' | %6
 z .[ad'e'g'a'].[ad'e'g'a'][aa'] d''-[e'd''][c'f'c''][d'b'd'']!8va)! | %7
 [ac'a']2 [ff'][ege']- [ege'][dd'] [faf']2 | .[A,D]2 z2 [dfd'][ege'][faf'][bd'b'] | %9
 [ad'a']2 [ff'][ege']- [ege'][ff'] [dfd']2 | [B,D]2 z a d'e'f'g' | [aa']d'ad' ad[c'e']a | %12
 e[ea] .e2 z d e2 | [GAdg]4- [GAdg]/ z/ f e2 | [FAdf]4- [FAdf]/ z/ c'/d'/ e'/f'/g'/a'/ | %15
 eAdA eAdA | eAdA aAdA | eAdA eAdA | eAdA aAdA | dGAG gGdG | f=AeA dAcA | eFdF eFdF | fA_cA [Fd]4 | %23
 z D[A,E]D [A,E]D[A,E]D | [A,E]D[A,E]D [A,F]D[A,G]D | [EA]C[A,E]C [A,CA]C[B,DB]C | %26
 [CEAc]4 [DFBd]4 | [B,DA]DGD dDGD | [=A,CEA]EGE dEeE |!8va(! ead'a d'e'a'd' | %30
 a'd''c''e' a'd'a[dd']!8va)! | [dgac'] b2 [dga]- [dga]!8va(![a'd''][d'a']!8va)!g | %32
 [df] g2 [dga]- [dga][Ac]d[fd'] | [ceac']A[db]A [cc']2 [Bdb]2 | %34
 [ceac']2- [ceac']b [ea]2- [ea][Ff] | [Acea]2 [Fcef]2 [Aa]2 [dad']2 | %36
 [eac'e']2 z [ea] [cc']2 [dad']2 | [eae']4 z4 | [fad'f']2 [Ee]2 [Ff]2 [Gg]2 | %39
 [d'g'b'd'']4 [d'd'']2 z [gg'] | [fad'f']2 [gg']2 [d'f'a'd'']3 [Aa] | %41
 [=Adg=a]2 [GAdg]2 [Adga]2 [_A_a]c'/d'/ | .[eac'e'].[eac'e']de fdfd' | [cgc']3 b [dgb]2 A,A,/B,/ | %44
 [A,C]2 cd eceb | [ceb]3 c' [cea]3 B,/C/ | .[B,D]2 de fdfd' | [cgc']3 b [dgb]2 [dgb]2 | %48
 [eac'e']2 [eac']a/=a/ [egb]2 c'[egb]- | [egb]a [dfa]2 [Dd]2 [Ee]2 | %50
 [FA_cf]2 [dd'][ee'] [fad'f'][dd'][ff'][d'd''] | [c'g'c'']3 [bb'] [bd'g'b']2 A,A,/B,/ | %52
 [A,C]2 [aa'][bb'] [c'e'a'c''][aa'][c'c''][bb'] | %53
 [=ac'f'=a']2 [ff']2 [f'a'c''f'']2 [c'c'']d''/=d''/ | [e'b'e'']3 d''/c''/ [d'f'b'd'']4 | %55
 z a[Bea]a [Bea]g[Bf]a | z a[dfa]a [dfd']2 c'[gbd']- | [gbd']3 [=A,DG]- [A,DG]3 f'/g'/ | %58
 [=ad'a']2 [ad'g']2 [ad']2 a_a | [egb]a[egb]a [egb]a[egb]a | [dfa]2 [ad'f']2 [fad']2 d/e/f/g/ | %61
 [=Ada][aa'][ad'a'][aa'] [ad'a'][gg'][ff'][aa'] | %62
 z .[ad'e'g'a'].[ad'e'g'a'][aa'] d''-[e'd''][c'f'c''][d'b'd''] | %63
 [ac'a']2 [ff'][ege']- [ege'][dd'] [faf']2 | .[A,D]2 z2 [dfd'][ege'][faf'][bd'b'] | %65
 [ad'a']2 [ff'][ege']- [ege'][ff'] [dfd']2 | [B,D]2 z a d'e'f'g' | [aa']d'ad' ad[c'e']a | %68
 e[ea] .e2 z d e2 | [GAdg]4- [GAdg]/ z/ f e2 | [FAdf]4- [FAdf]/ z/ c'/d'/ e'/f'/g'/a'/ | %71
 z2 z z/4 g3/4 z4 | Ag- g<A- A<[Adf]- [Adf]2- | [Adf]8 |] %74
V:2
 z8 | z dd'd d'dad | z d z d adc'd | z dad c'dd'd | adc'd d'd[K:bass] D,,2 | %5
 z[K:treble] dc'd d'dad | %6
[K:bass] .[A,,,A,,].[A,,,A,,] .[A,,,A,,]2[K:treble] fg[K:bass] .[A,,,A,,]2 | %7
 [G,,,G,,]B,,[G,B,D]B,, DB,,[G,B,D]B,, | [A,,,A,,]C,[E,A,D]C, DC,[E,A,D]C, | %9
 [F,,,F,,]D,[F,A,D]D, DC[F,A,]C | [B,,,B,,]D,[CE]F,[K:treble] [DF]B,[EG]D | %11
[K:bass] [G,,,G,,]2 G,,[B,,D,G,]- [B,,D,G,]G,, [B,,D,G,]2 | %12
 A,, [A,,,A,,]2 A,, [C,E,A,]A,,[C,E,A,]A,, | [D,,D,]D,,D,,D,, D,,D,,[D,,D,][D,,D,] | %14
 [D,,,D,,][D,,D,][D,,D,][D,,D,] [D,,D,][D,,D,][D,,D,][D,,D,] |[K:treble] E2 E2 EDED | %16
 E2 G2 F2- FD | EDED E2 ED | E2 G2 F2- FD |[K:bass] E2- EF G2- GA |[K:treble] =A2 z F F4 | %21
 E3 D D2 E2 | [A,F]4[K:bass] [D,F,A,_C]2 [D,,D,]2 | %23
 [G,,,G,,] z [G,,,G,,] z [G,,,G,,] z [G,,,G,,] z | %24
 [G,,,G,,] z [G,,,G,,] z [G,,,G,,] z [G,,,G,,] z | %25
 [F,,,F,,] z [F,,,F,,] z [F,,,F,,] z [F,,,F,,] z | %26
 [B,,,B,,] z [B,,,B,,] z [B,,,B,,] z [B,,,B,,] z | %27
 [E,,,E,,] z [E,,,E,,] z [E,,,E,,] z [E,,,E,,] z | %28
 [F,,,F,,] z [F,,,F,,] z [F,,,F,,] z [F,,,F,,] z | %29
 [B,,,B,,] z [B,,,B,,] z [B,,,B,,] z [B,,,B,,] z | %30
 [D,,,D,,]2 [D,E,]-[D,E,]/D,,/ [D,F,]A,,[D,G,]D,, | .[G,,,G,,] z2 [G,,,G,,] z G,,,G,, z | %32
 [G,,,G,,]G,,, z [G,,,G,,] z G,,,G,, z | [G,,,G,,] z z [G,,,G,,] z G,,, .G,,2 | %34
 [G,,,G,,]G,,, z [G,,,G,,] z G,,, .G,,2 | .[F,,,F,,]2 z [F,,,F,,] z F,,, .F,,2 | %36
 [F,,,F,,]F,,, z [F,,,F,,] z F,,, .F,,2 | .[B,,,B,,]2 z [B,,,B,,] z B,,, .B,,2 | %38
 [B,,,B,,]2 [B,,,B,,]>B,, B,F,B,,B,,, | z2[K:treble] G2 [Ad]2 E2 | %40
!8vb(! F,2-!8vb)! [F-Ge]2 [Fdf][K:bass]F,D,F,, | [G,,,G,,]2 [G,,,G,,]2 [G,,,G,,]2 [G,,,G,,]2 | %42
 .[A,,,A,,].[A,,,A,,] z2 A,,,A,,[K:treble] D/E/F/G/ |[K:bass] [G,,,G,,]2 [G,B,]D, G,,D,G,D, | %44
 [A,,,A,,]E,[B,D]A, [CE]C,[E,B,]A,, | [F,,,F,,]2 [F,A,]C, F,,C,[F,A,]C, | %46
 [B,,,B,,]F,[A,C]D, [F,A,]B,,D,F,, | [G,,,G,,]2 [G,B,]D, G,,D,[G,B,]D, | %48
 [A,,,A,,]2 [A,C]E, =A,,E,[G,=A,]E, | [B,,,B,,]2 [A,D]F, B,,F,[A,D]F, | %50
 [A,,,A,,][A,,,A,,]A,,,A,, D,,A,, D,/A,,/D,, | [G,,,G,,]2 [G,B,]D, G,,D,G,D, | %52
 [A,,,A,,]E,[B,D]A, [CE]C,[E,B,]A,, | [=A,,,=A,,]2 [=A,C]F, F,,C,[F,A,]C, | %54
 [B,,,B,,]>B,,, B,,B,,, B,,,B,, B,/F,/D,/B,,/ | [E,,,E,,]2 [E,,,E,,]2 [E,,,E,,]2 [E,,,E,,]2 | %56
 [F,,,F,,]2 [F,,,F,,]2 [F,,,F,,]2 [F,,,F,,]2 | [G,,,G,,]2 [G,,,G,,]2 [G,,,G,,]2 [G,,,G,,]2 | %58
 [G,,,G,,]2 [G,,,G,,]2 [G,,,G,,]2 [G,,,G,,]2 | [E,,,E,,]3 E,, [B,,G,]3 E,, | %60
 F,,, F,,2 F,, [D,A,]2 F,/D,/A,,/F,,/ | %61
 [G,,,G,,]2 [G,,,G,,]2 [G,,,G,,][G,,,G,,][G,,,G,,][G,,,G,,] | %62
 .[A,,,A,,].[A,,,A,,] .[A,,,A,,]2[K:treble] fg[K:bass] .[A,,,A,,]2 | %63
 [G,,,G,,]B,,[G,B,D]B,, DB,,[G,B,D]B,, | [A,,,A,,]C,[E,A,D]C, DC,[E,A,D]C, | %65
 [F,,,F,,]D,[F,A,D]D, DC[F,A,]C | [B,,,B,,]D,[CE]F,[K:treble] [DF]B,[EG]D | %67
[K:bass] [G,,,G,,]2 G,,[B,,D,G,]- [B,,D,G,]G,, [B,,D,G,]2 | %68
 A,, [A,,,A,,]2 A,, [C,E,A,]A,,[C,E,A,]A,, | [D,,D,]D,,D,,D,, D,,D,,[D,,D,][D,,D,] | %70
 [D,,,D,,][D,,D,][D,,D,][D,,D,] [D,,D,][D,,D,][D,,D,][D,,D,] | z2 z[K:treble] G- G2 F2- | %72
 F E3 D4- | D8 |] %74
V:3
!8va(! x8 | d'2 z2 z4 | x8 | x8 | x8 | x8 | z4 .d'2 z2!8va)! | x8 | x8 | x8 | x8 | x8 | x8 | x8 | %14
 x8 | x8 | x8 | x8 | x8 | x8 | x8 | x8 | x8 | x8 | x8 | x8 | z A,CA, z B,DB, | x8 | x8 |!8va(! x8 | %30
 x8!8va)! | x5!8va(! x2!8va)! x | x8 | x8 | z3 [Ac]2- [Ac] [GB]2 | x8 | z2 [dd']2 z4 | %37
 c'd'c'[ea] z2 [dfad']2 | x8 | x8 | x8 | x8 | x8 | x8 | x8 | x8 | x8 | x8 | x8 | x8 | x8 | x8 | %52
 x8 | x8 | x8 | x8 | x8 | x8 | x8 | x8 | x8 | x8 | z4 .d'2 z2 | x8 | x8 | x8 | x8 | x8 | x8 | x8 | %70
 x8 | z2 z z/ b/ gdad | x8 | x8 |] %74
V:4
 x8 | G8 | A8 | F8 | B6[K:bass] z2 | G,,6[K:treble] D,,2 |[K:bass] x4[K:treble] x2[K:bass] x2 | %7
 x8 | x8 | x8 | x4[K:treble] x4 |[K:bass] x8 | x8 | x8 | x8 |[K:treble] D8- | D8 | B,8- | B,8 | %19
[K:bass] G,8 |[K:treble] F,8 | B,8 | x4[K:bass] x4 | x8 | x8 | x8 | x8 | x8 | x8 | x8 | x8 | x8 | %32
 x8 | x8 | x8 | x8 | x8 | x8 | x8 | [E,,E,]8[K:treble] |!8vb(! F,,6!8vb)![K:bass] z2 | x8 | %42
 x6[K:treble] x2 |[K:bass] x8 | x8 | x8 | x8 | x8 | x8 | x8 | x8 | x8 | x8 | x8 | x8 | x8 | x8 | %57
 x8 | x8 | x8 | x8 | x8 | x4[K:treble] x2[K:bass] x2 | x8 | x8 | x8 | x4[K:treble] x4 | %67
[K:bass] x8 | x8 | x8 | x8 | x3[K:treble] x5 | x8 | x8 |] %74
V:5
!8va(! x8 | x8 | x8 | x8 | x8 | x8 | x8!8va)! | x8 | x8 | x8 | x8 | x8 | x8 | x8 | x8 | x8 | x8 | %17
 x8 | x8 | x8 | x8 | x8 | x8 | x8 | x8 | x8 | x8 | x8 | x8 |!8va(! x8 | x8!8va)! | %31
 x5!8va(! x2!8va)! x | x8 | x8 | x8 | x8 | x8 | x8 | x8 | x8 | x8 | x8 | x8 | x8 | x8 | x8 | x8 | %47
 x8 | x8 | x8 | x8 | x8 | x8 | x8 | x8 | x8 | x8 | x8 | x8 | x8 | x8 | x8 | x8 | x8 | x8 | x8 | %66
 x8 | x8 | x8 | x8 | x8 | z2 z d z4 | x8 | x8 |] %74

